%
(TEST1)
(T5  D=1.5 CR=0. TAPER=118DEG - DRILL)
N10 G90 G94 G17 G91.1
N15 G21
N20 G53 G0 Z0.
(DRILL4)
N25 T5 M6
N30 S2330 M3
N35 G54
N40 G0 A270. C180.
N45 M8
N50 G0 G43 X0. Y-8. Z25.5 H5
N55 G0 Z15.5
N60 G98 G81 X0. Y-8. Z-5. R5. F70.
N65 G80
N70 G0 Z25.5
N75 G53 Z0.
(DRILL4)
N80 G0 A270. C135.
N85 G0 G43 X0. Y-8. Z25.5 H5
N90 G0 Z15.5
N95 G81 X0. Y-8. Z-5. R5. F70.
N100 G80
N105 G0 Z25.5
N110 G53 Z0.
(DRILL4)
N115 G0 A270. C90.
N120 G0 G43 X0. Y-8. Z25.5 H5
N125 G0 Z15.5
N130 G81 X0. Y-8. Z-5. R5. F70.
N135 G80
N140 G0 Z25.5
N145 G53 Z0.
(DRILL4)
N150 G0 A270. C45.
N155 G0 G43 X0. Y-8. Z25.5 H5
N160 G0 Z15.5
N165 G81 X0. Y-8. Z-5. R5. F70.
N170 G80
N175 G0 Z25.5
N180 G53 Z0.
(DRILL4)
N185 G0 A270. C0.
N190 G0 G43 X0. Y-8. Z25.5 H5
N195 G0 Z15.5
N200 G81 X0. Y-8. Z-5. R5. F70.
N205 G80
N210 G0 Z25.5
N215 G53 Z0.
(DRILL4)
N220 G0 A270. C315.
N225 G0 G43 X0. Y-8. Z25.5 H5
N230 G0 Z15.5
N235 G81 X0. Y-8. Z-5. R5. F70.
N240 G80
N245 G0 Z25.5
N250 G53 Z0.
(DRILL4)
N255 G0 A270. C270.
N260 G0 G43 X0. Y-8. Z25.5 H5
N265 G0 Z15.5
N270 G81 X0. Y-8. Z-5. R5. F70.
N275 G80
N280 G0 Z25.5
N285 G53 Z0.
(DRILL4)
N290 G0 A270. C225.
N295 G0 G43 X0. Y-8. Z25.5 H5
N300 G0 Z15.5
N305 G81 X0. Y-8. Z-5. R5. F70.
N310 G80
N315 G0 Z25.5
N320 M9
N325 G53 Z0.
N330 G0 A0. C0.
N335 M30
%
